images/icon-add-to-cart.svg

<svg width="24" height="24" viewBox="0 0 24 24" fill="none" xmlns="http://www.w3.org/2000/svg">
<path d="M23.2896 4.94327C22.7844 4.81588 22.2535 5.1214 22.1272 5.63093L20.0304 13.9616H7.8562L4.97602 2.16559C4.87538 1.73269 4.49648 1.42717 4.0416 1.42717H0.960093C0.429223 1.42717 0 1.86007 0 2.39549C0 2.93091 0.429223 3.36381 0.960093 3.36381H3.3095L7.19908 19.3624C7.29973 19.7953 7.67862 20.1009 8.13351 20.1009H19.2223C19.7531 20.1009 20.1824 19.668 20.1824 19.1325C20.1824 18.5971 19.7531 18.1642 19.2223 18.1642H8.86555L8.31003 15.8972H20.7378C21.1671 15.8972 21.546 15.5917 21.6723 15.1836L23.9714 6.11341C24.0977 5.60487 23.7947 5.07044 23.2895 4.94306L23.2896 4.94327Z" fill="#88DD9B"/>
<path d="M11.4678 22.4455C11.4678 23.3034 10.7781 24 9.92751 24C9.07596 24 8.38623 23.3034 8.38623 22.4455C8.38623 21.5877 9.07596 20.891 9.92751 20.891C10.7781 20.891 11.4678 21.5877 11.4678 22.4455Z" fill="#88DD9B"/>
<path d="M19.4244 22.4455C19.4244 23.3034 18.7346 24 17.8841 24C17.0325 24 16.3428 23.3034 16.3428 22.4455C16.3428 21.5877 17.0325 20.891 17.8841 20.891C18.7346 20.891 19.4244 21.5877 19.4244 22.4455Z" fill="#88DD9B"/>
<path d="M16.6972 6.11442L14.9793 7.84704V0.96832C14.9793 0.432901 14.5501 0 14.0192 0C13.4884 0 13.0592 0.432901 13.0592 0.96832V7.84704L11.3413 6.11442C11.1646 5.93628 10.912 5.83376 10.6594 5.83376C10.4068 5.83376 10.1799 5.93527 9.9776 6.11442C9.59869 6.49657 9.59869 7.1076 9.9776 7.46489L13.3375 10.8535C13.6907 11.2098 14.3222 11.2098 14.6765 10.8535L18.0363 7.46489C18.4152 7.08274 18.4152 6.4717 18.0363 6.11442C17.6821 5.73227 17.0762 5.73227 16.6973 6.11442H16.6972Z" fill="#88DD9B"/>
</svg>

<?xml version="1.0" encoding="utf-8"?>
<!-- Generator: Adobe Illustrator 16.0.0, SVG Export Plug-In . SVG Version: 6.00 Build 0)  -->
<!DOCTYPE svg PUBLIC "-//W3C//DTD SVG 1.1//EN" "http://www.w3.org/Graphics/SVG/1.1/DTD/svg11.dtd">
<svg version="1.1" id="Layer_1" xmlns="http://www.w3.org/2000/svg" xmlns:xlink="http://www.w3.org/1999/xlink" x="0px" y="0px"
	 width="24px" height="24px" viewBox="0 0 24 24" enable-background="new 0 0 24 24" xml:space="preserve">
<path fill="#FFCB00" d="M23.289,4.943c-0.505-0.127-1.035,0.178-1.162,0.688l-2.097,8.33H7.856L4.976,2.166
	C4.875,1.733,4.497,1.427,4.042,1.427H0.96C0.429,1.427,0,1.86,0,2.396s0.429,0.968,0.96,0.968h2.35l3.89,15.999
	c0.101,0.433,0.479,0.739,0.934,0.739h11.089c0.53,0,0.96-0.434,0.96-0.969s-0.43-0.969-0.96-0.969H8.866L8.31,15.896h12.428
	c0.429,0,0.808-0.305,0.934-0.713l2.299-9.07C24.098,5.605,23.795,5.07,23.289,4.943L23.289,4.943z"/>
<path fill="#FFCB00" d="M11.468,22.445c0,0.857-0.689,1.555-1.54,1.555c-0.852,0-1.542-0.697-1.542-1.555s0.69-1.555,1.542-1.555
	C10.778,20.891,11.468,21.588,11.468,22.445z"/>
<path fill="#FFCB00" d="M19.424,22.445c0,0.857-0.689,1.555-1.539,1.555c-0.852,0-1.542-0.697-1.542-1.555s0.69-1.555,1.542-1.555
	C18.734,20.891,19.424,21.588,19.424,22.445z"/>
<path fill="#FFCB00" d="M16.697,6.114l-1.718,1.733V0.968C14.979,0.433,14.551,0,14.02,0s-0.961,0.433-0.961,0.968v6.879
	l-1.717-1.733c-0.177-0.178-0.429-0.281-0.682-0.281c-0.252,0-0.479,0.102-0.682,0.281c-0.379,0.382-0.379,0.993,0,1.351l3.36,3.389
	c0.354,0.356,0.984,0.356,1.338,0l3.36-3.389c0.379-0.382,0.379-0.993,0-1.351C17.682,5.732,17.076,5.732,16.697,6.114L16.697,6.114
	z"/>
</svg>
